X:166
T:In My Cottage Near The Wood. JaW.166
M:C|
L:1/8
Q:1/2=100
S:James Winder Ms, Lancashire, 1835-41
R:.March
O:England
A:Wyresdale,Lancashire
N:I have rebarred it all two crotchets to the right.CGP.
Z:vmp.Chris Partington, Aug 2004
K:C
“_rebarred”E3FG2G2|A2A2G2z2|c2d2e2f>d|c2B2c2z2|!
E3FG2G2|A2A2G2z2|c2d2e2(f>d)|c2B2c2z2:|!
|:f2e2d2e2|f2e2d2z2|f2e2d2c2|B2A2G3F|!
E3FG2G2 |A2A2G2z2|c2d2e2(f>d)|”qus”c2B2c2z2:|

